images/5537.svg

<?xml version="1.0" encoding="UTF-8"?>
<svg xmlns="http://www.w3.org/2000/svg" xmlns:xlink="http://www.w3.org/1999/xlink" width="300pt" height="300pt" viewBox="0 0 300 300" version="1.1">
<defs>
<g>
<symbol overflow="visible" id="glyph0-0">
<path style="stroke:none;" d="M 0.59375 2.125 L 0.59375 -8.46875 L 6.59375 -8.46875 L 6.59375 2.125 Z M 1.265625 1.453125 L 5.9375 1.453125 L 5.9375 -7.78125 L 1.265625 -7.78125 Z M 1.265625 1.453125 "/>
</symbol>
<symbol overflow="visible" id="glyph0-1">
<path style="stroke:none;" d="M 1.171875 -8.75 L 2.765625 -8.75 L 6.65625 -1.4375 L 6.65625 -8.75 L 7.796875 -8.75 L 7.796875 0 L 6.203125 0 L 2.328125 -7.3125 L 2.328125 0 L 1.171875 0 Z M 1.171875 -8.75 "/>
</symbol>
<symbol overflow="visible" id="glyph0-2">
<path style="stroke:none;" d="M 4.734375 -7.953125 C 3.867188 -7.953125 3.179688 -7.628906 2.671875 -6.984375 C 2.171875 -6.347656 1.921875 -5.472656 1.921875 -4.359375 C 1.921875 -3.265625 2.171875 -2.394531 2.671875 -1.75 C 3.179688 -1.113281 3.867188 -0.796875 4.734375 -0.796875 C 5.585938 -0.796875 6.265625 -1.113281 6.765625 -1.75 C 7.273438 -2.394531 7.53125 -3.265625 7.53125 -4.359375 C 7.53125 -5.472656 7.273438 -6.347656 6.765625 -6.984375 C 6.265625 -7.628906 5.585938 -7.953125 4.734375 -7.953125 Z M 4.734375 -8.90625 C 5.953125 -8.90625 6.925781 -8.492188 7.65625 -7.671875 C 8.394531 -6.847656 8.765625 -5.742188 8.765625 -4.359375 C 8.765625 -2.984375 8.394531 -1.882812 7.65625 -1.0625 C 6.925781 -0.238281 5.953125 0.171875 4.734375 0.171875 C 3.503906 0.171875 2.519531 -0.238281 1.78125 -1.0625 C 1.039062 -1.882812 0.671875 -2.984375 0.671875 -4.359375 C 0.671875 -5.742188 1.039062 -6.847656 1.78125 -7.671875 C 2.519531 -8.492188 3.503906 -8.90625 4.734375 -8.90625 Z M 4.734375 -8.90625 "/>
</symbol>
</g>
</defs>
<g id="surface35005">
<rect x="0" y="0" width="300" height="300" style="fill:rgb(100%,100%,100%);fill-opacity:1;stroke:none;"/>
<path style="fill:none;stroke-width:1.2;stroke-linecap:butt;stroke-linejoin:miter;stroke:rgb(0%,0%,0%);stroke-opacity:1;stroke-miterlimit:10;" d="M 224.109375 49.242188 L 220.523438 78.917969 "/>
<path style="fill:none;stroke-width:1.2;stroke-linecap:butt;stroke-linejoin:miter;stroke:rgb(0%,0%,0%);stroke-opacity:1;stroke-miterlimit:10;" d="M 220.523438 78.917969 L 193.03125 90.648438 "/>
<path style="fill:none;stroke-width:1.2;stroke-linecap:butt;stroke-linejoin:miter;stroke:rgb(0%,0%,0%);stroke-opacity:1;stroke-miterlimit:10;" d="M 220.535156 86.558594 L 198.542969 95.945312 "/>
<path style="fill:none;stroke-width:1.2;stroke-linecap:butt;stroke-linejoin:miter;stroke:rgb(0%,0%,0%);stroke-opacity:1;stroke-miterlimit:10;" d="M 244.429688 96.863281 L 220.523438 78.917969 "/>
<path style="fill:none;stroke-width:1.2;stroke-linecap:butt;stroke-linejoin:miter;stroke:rgb(0%,0%,0%);stroke-opacity:1;stroke-miterlimit:10;" d="M 193.03125 90.648438 L 189.445312 120.324219 "/>
<path style="fill:none;stroke-width:1.2;stroke-linecap:butt;stroke-linejoin:miter;stroke:rgb(0%,0%,0%);stroke-opacity:1;stroke-miterlimit:10;" d="M 189.445312 120.324219 L 213.351562 138.269531 "/>
<path style="fill:none;stroke-width:1.2;stroke-linecap:butt;stroke-linejoin:miter;stroke:rgb(0%,0%,0%);stroke-opacity:1;stroke-miterlimit:10;" d="M 196.058594 116.496094 L 215.183594 130.847656 "/>
<path style="fill:none;stroke-width:1.2;stroke-linecap:butt;stroke-linejoin:miter;stroke:rgb(0%,0%,0%);stroke-opacity:1;stroke-miterlimit:10;" d="M 189.445312 120.324219 L 161.953125 132.058594 "/>
<path style="fill:none;stroke-width:1.2;stroke-linecap:butt;stroke-linejoin:miter;stroke:rgb(0%,0%,0%);stroke-opacity:1;stroke-miterlimit:10;" d="M 213.351562 138.269531 L 240.84375 126.535156 "/>
<path style="fill:none;stroke-width:1.2;stroke-linecap:butt;stroke-linejoin:miter;stroke:rgb(0%,0%,0%);stroke-opacity:1;stroke-miterlimit:10;" d="M 213.351562 138.269531 L 211.558594 153.105469 "/>
<path style="fill:none;stroke-width:1.2;stroke-linecap:butt;stroke-linejoin:miter;stroke:rgb(0%,0%,100%);stroke-opacity:1;stroke-miterlimit:10;" d="M 211.558594 153.105469 L 209.765625 167.941406 "/>
<path style="fill:none;stroke-width:1.2;stroke-linecap:butt;stroke-linejoin:miter;stroke:rgb(0%,0%,0%);stroke-opacity:1;stroke-miterlimit:10;" d="M 240.84375 126.535156 L 244.429688 96.863281 "/>
<path style="fill:none;stroke-width:1.2;stroke-linecap:butt;stroke-linejoin:miter;stroke:rgb(0%,0%,0%);stroke-opacity:1;stroke-miterlimit:10;" d="M 234.21875 122.726562 L 237.089844 98.984375 "/>
<path style="fill:none;stroke-width:1.2;stroke-linecap:butt;stroke-linejoin:miter;stroke:rgb(0%,0%,0%);stroke-opacity:1;stroke-miterlimit:10;" d="M 240.84375 126.535156 L 264.75 144.480469 "/>
<path style="fill:none;stroke-width:1.2;stroke-linecap:butt;stroke-linejoin:miter;stroke:rgb(0%,0%,100%);stroke-opacity:1;stroke-miterlimit:10;" d="M 209.765625 167.941406 L 196.019531 173.808594 "/>
<path style="fill:none;stroke-width:1.2;stroke-linecap:butt;stroke-linejoin:miter;stroke:rgb(0%,0%,0%);stroke-opacity:1;stroke-miterlimit:10;" d="M 196.019531 173.808594 L 182.273438 179.675781 "/>
<path style="fill:none;stroke-width:1.2;stroke-linecap:butt;stroke-linejoin:miter;stroke:rgb(0%,0%,100%);stroke-opacity:1;stroke-miterlimit:10;" d="M 204.253906 162.648438 L 193.257812 167.339844 "/>
<path style="fill:none;stroke-width:1.2;stroke-linecap:butt;stroke-linejoin:miter;stroke:rgb(0%,0%,0%);stroke-opacity:1;stroke-miterlimit:10;" d="M 193.257812 167.339844 L 182.261719 172.03125 "/>
<path style=" stroke:none;fill-rule:nonzero;fill:rgb(100%,100%,100%);fill-opacity:1;" d="M 205.765625 160.941406 L 214.765625 160.941406 L 214.765625 174.941406 L 205.765625 174.941406 Z M 205.765625 160.941406 "/>
<g style="fill:rgb(0%,0%,100%);fill-opacity:1;">
  <use xlink:href="#glyph0-1" x="205.765625" y="172.080078"/>
</g>
<path style="fill:none;stroke-width:1.2;stroke-linecap:butt;stroke-linejoin:miter;stroke:rgb(0%,0%,0%);stroke-opacity:1;stroke-miterlimit:10;" d="M 182.273438 179.675781 L 158.367188 161.730469 "/>
<path style="fill:none;stroke-width:1.2;stroke-linecap:butt;stroke-linejoin:miter;stroke:rgb(0%,0%,100%);stroke-opacity:1;stroke-miterlimit:10;" d="M 178.6875 209.351562 L 180.480469 194.511719 "/>
<path style="fill:none;stroke-width:1.2;stroke-linecap:butt;stroke-linejoin:miter;stroke:rgb(0%,0%,0%);stroke-opacity:1;stroke-miterlimit:10;" d="M 180.480469 194.511719 L 182.273438 179.675781 "/>
<path style="fill:none;stroke-width:1.2;stroke-linecap:butt;stroke-linejoin:miter;stroke:rgb(0%,0%,0%);stroke-opacity:1;stroke-miterlimit:10;" d="M 158.367188 161.730469 L 130.875 173.464844 "/>
<path style="fill:none;stroke-width:1.2;stroke-linecap:butt;stroke-linejoin:miter;stroke:rgb(0%,0%,0%);stroke-opacity:1;stroke-miterlimit:10;" d="M 158.378906 169.375 L 136.382812 178.757812 "/>
<path style="fill:none;stroke-width:1.2;stroke-linecap:butt;stroke-linejoin:miter;stroke:rgb(0%,0%,0%);stroke-opacity:1;stroke-miterlimit:10;" d="M 130.875 173.464844 L 106.96875 155.519531 "/>
<path style="fill:none;stroke-width:1.2;stroke-linecap:butt;stroke-linejoin:miter;stroke:rgb(0%,0%,100%);stroke-opacity:1;stroke-miterlimit:10;" d="M 127.289062 203.136719 L 129.082031 188.300781 "/>
<path style="fill:none;stroke-width:1.2;stroke-linecap:butt;stroke-linejoin:miter;stroke:rgb(0%,0%,0%);stroke-opacity:1;stroke-miterlimit:10;" d="M 129.082031 188.300781 L 130.875 173.464844 "/>
<path style="fill:none;stroke-width:1.2;stroke-linecap:butt;stroke-linejoin:miter;stroke:rgb(0%,0%,0%);stroke-opacity:1;stroke-miterlimit:10;" d="M 106.96875 155.519531 L 110.554688 125.84375 "/>
<path style="fill:none;stroke-width:1.2;stroke-linecap:butt;stroke-linejoin:miter;stroke:rgb(0%,0%,0%);stroke-opacity:1;stroke-miterlimit:10;" d="M 100.34375 151.707031 L 103.214844 127.96875 "/>
<path style="fill:none;stroke-width:1.2;stroke-linecap:butt;stroke-linejoin:miter;stroke:rgb(0%,0%,0%);stroke-opacity:1;stroke-miterlimit:10;" d="M 79.476562 167.25 L 106.96875 155.519531 "/>
<path style="fill:none;stroke-width:1.2;stroke-linecap:butt;stroke-linejoin:miter;stroke:rgb(0%,0%,0%);stroke-opacity:1;stroke-miterlimit:10;" d="M 110.554688 125.84375 L 86.648438 107.902344 "/>
<path style="fill:none;stroke-width:1.2;stroke-linecap:butt;stroke-linejoin:miter;stroke:rgb(0%,0%,0%);stroke-opacity:1;stroke-miterlimit:10;" d="M 86.648438 107.902344 L 59.15625 119.632812 "/>
<path style="fill:none;stroke-width:1.2;stroke-linecap:butt;stroke-linejoin:miter;stroke:rgb(0%,0%,0%);stroke-opacity:1;stroke-miterlimit:10;" d="M 86.660156 115.542969 L 64.664062 124.929688 "/>
<path style="fill:none;stroke-width:1.2;stroke-linecap:butt;stroke-linejoin:miter;stroke:rgb(0%,0%,0%);stroke-opacity:1;stroke-miterlimit:10;" d="M 86.648438 107.902344 L 88.441406 93.0625 "/>
<path style="fill:none;stroke-width:1.2;stroke-linecap:butt;stroke-linejoin:miter;stroke:rgb(100%,0%,0%);stroke-opacity:1;stroke-miterlimit:10;" d="M 88.441406 93.0625 L 90.234375 78.226562 "/>
<path style="fill:none;stroke-width:1.2;stroke-linecap:butt;stroke-linejoin:miter;stroke:rgb(0%,0%,0%);stroke-opacity:1;stroke-miterlimit:10;" d="M 59.15625 119.632812 L 55.570312 149.308594 "/>
<path style="fill:none;stroke-width:1.2;stroke-linecap:butt;stroke-linejoin:miter;stroke:rgb(0%,0%,0%);stroke-opacity:1;stroke-miterlimit:10;" d="M 59.15625 119.632812 L 47.203125 110.660156 "/>
<path style="fill:none;stroke-width:1.2;stroke-linecap:butt;stroke-linejoin:miter;stroke:rgb(100%,0%,0%);stroke-opacity:1;stroke-miterlimit:10;" d="M 47.203125 110.660156 L 35.25 101.691406 "/>
<path style="fill:none;stroke-width:1.2;stroke-linecap:butt;stroke-linejoin:miter;stroke:rgb(0%,0%,0%);stroke-opacity:1;stroke-miterlimit:10;" d="M 55.570312 149.308594 L 79.476562 167.25 "/>
<path style="fill:none;stroke-width:1.2;stroke-linecap:butt;stroke-linejoin:miter;stroke:rgb(0%,0%,0%);stroke-opacity:1;stroke-miterlimit:10;" d="M 62.183594 145.476562 L 81.308594 159.832031 "/>
<path style="fill:none;stroke-width:1.2;stroke-linecap:butt;stroke-linejoin:miter;stroke:rgb(0%,0%,0%);stroke-opacity:1;stroke-miterlimit:10;" d="M 79.476562 167.25 L 75.890625 196.925781 "/>
<path style="fill:none;stroke-width:1.2;stroke-linecap:butt;stroke-linejoin:miter;stroke:rgb(0%,0%,0%);stroke-opacity:1;stroke-miterlimit:10;" d="M 75.890625 196.925781 L 99.796875 214.871094 "/>
<path style="fill:none;stroke-width:1.2;stroke-linecap:butt;stroke-linejoin:miter;stroke:rgb(0%,0%,0%);stroke-opacity:1;stroke-miterlimit:10;" d="M 99.796875 214.871094 L 113.542969 209.003906 "/>
<path style="fill:none;stroke-width:1.2;stroke-linecap:butt;stroke-linejoin:miter;stroke:rgb(0%,0%,100%);stroke-opacity:1;stroke-miterlimit:10;" d="M 113.542969 209.003906 L 127.289062 203.136719 "/>
<path style="fill:none;stroke-width:1.2;stroke-linecap:butt;stroke-linejoin:miter;stroke:rgb(0%,0%,100%);stroke-opacity:1;stroke-miterlimit:10;" d="M 127.289062 203.136719 L 139.242188 212.109375 "/>
<path style="fill:none;stroke-width:1.2;stroke-linecap:butt;stroke-linejoin:miter;stroke:rgb(0%,0%,0%);stroke-opacity:1;stroke-miterlimit:10;" d="M 139.242188 212.109375 L 151.195312 221.082031 "/>
<path style=" stroke:none;fill-rule:nonzero;fill:rgb(100%,100%,100%);fill-opacity:1;" d="M 123.289062 196.136719 L 132.289062 196.136719 L 132.289062 210.136719 L 123.289062 210.136719 Z M 123.289062 196.136719 "/>
<g style="fill:rgb(0%,0%,100%);fill-opacity:1;">
  <use xlink:href="#glyph0-1" x="123.289062" y="207.275391"/>
</g>
<path style="fill:none;stroke-width:1.2;stroke-linecap:butt;stroke-linejoin:miter;stroke:rgb(0%,0%,0%);stroke-opacity:1;stroke-miterlimit:10;" d="M 147.703125 220.660156 L 145.910156 235.496094 "/>
<path style="fill:none;stroke-width:1.2;stroke-linecap:butt;stroke-linejoin:miter;stroke:rgb(100%,0%,0%);stroke-opacity:1;stroke-miterlimit:10;" d="M 145.910156 235.496094 L 144.117188 250.335938 "/>
<path style="fill:none;stroke-width:1.2;stroke-linecap:butt;stroke-linejoin:miter;stroke:rgb(0%,0%,0%);stroke-opacity:1;stroke-miterlimit:10;" d="M 154.683594 221.503906 L 152.890625 236.339844 "/>
<path style="fill:none;stroke-width:1.2;stroke-linecap:butt;stroke-linejoin:miter;stroke:rgb(100%,0%,0%);stroke-opacity:1;stroke-miterlimit:10;" d="M 152.890625 236.339844 L 151.097656 251.179688 "/>
<path style="fill:none;stroke-width:1.2;stroke-linecap:butt;stroke-linejoin:miter;stroke:rgb(0%,0%,0%);stroke-opacity:1;stroke-miterlimit:10;" d="M 151.195312 221.082031 L 164.941406 215.214844 "/>
<path style="fill:none;stroke-width:1.2;stroke-linecap:butt;stroke-linejoin:miter;stroke:rgb(0%,0%,100%);stroke-opacity:1;stroke-miterlimit:10;" d="M 164.941406 215.214844 L 178.6875 209.351562 "/>
<path style=" stroke:none;fill-rule:nonzero;fill:rgb(100%,100%,100%);fill-opacity:1;" d="M 142.609375 243.757812 L 152.609375 243.757812 L 152.609375 257.757812 L 142.609375 257.757812 Z M 142.609375 243.757812 "/>
<g style="fill:rgb(100%,0%,0%);fill-opacity:1;">
  <use xlink:href="#glyph0-2" x="142.609375" y="254.896484"/>
</g>
<path style="fill:none;stroke-width:1.2;stroke-linecap:butt;stroke-linejoin:miter;stroke:rgb(0%,0%,100%);stroke-opacity:1;stroke-miterlimit:10;" d="M 178.6875 209.351562 L 190.640625 218.320312 "/>
<path style="fill:none;stroke-width:1.2;stroke-linecap:butt;stroke-linejoin:miter;stroke:rgb(0%,0%,0%);stroke-opacity:1;stroke-miterlimit:10;" d="M 190.640625 218.320312 L 202.59375 227.292969 "/>
<path style=" stroke:none;fill-rule:nonzero;fill:rgb(100%,100%,100%);fill-opacity:1;" d="M 174.6875 202.351562 L 183.6875 202.351562 L 183.6875 216.351562 L 174.6875 216.351562 Z M 174.6875 202.351562 "/>
<g style="fill:rgb(0%,0%,100%);fill-opacity:1;">
  <use xlink:href="#glyph0-1" x="174.6875" y="213.490234"/>
</g>
<path style="fill:none;stroke-width:1.2;stroke-linecap:butt;stroke-linejoin:miter;stroke:rgb(100%,0%,0%);stroke-opacity:1;stroke-miterlimit:10;" d="M 35.25 101.691406 L 37.042969 86.851562 "/>
<path style="fill:none;stroke-width:1.2;stroke-linecap:butt;stroke-linejoin:miter;stroke:rgb(0%,0%,0%);stroke-opacity:1;stroke-miterlimit:10;" d="M 37.042969 86.851562 L 38.835938 72.015625 "/>
<path style=" stroke:none;fill-rule:nonzero;fill:rgb(100%,100%,100%);fill-opacity:1;" d="M 30.25 94.691406 L 40.25 94.691406 L 40.25 108.691406 L 30.25 108.691406 Z M 30.25 94.691406 "/>
<g style="fill:rgb(100%,0%,0%);fill-opacity:1;">
  <use xlink:href="#glyph0-2" x="30.25" y="105.830078"/>
</g>
<path style="fill:none;stroke-width:1.2;stroke-linecap:butt;stroke-linejoin:miter;stroke:rgb(100%,0%,0%);stroke-opacity:1;stroke-miterlimit:10;" d="M 90.234375 78.226562 L 103.980469 72.359375 "/>
<path style="fill:none;stroke-width:1.2;stroke-linecap:butt;stroke-linejoin:miter;stroke:rgb(0%,0%,0%);stroke-opacity:1;stroke-miterlimit:10;" d="M 103.980469 72.359375 L 117.726562 66.496094 "/>
<path style=" stroke:none;fill-rule:nonzero;fill:rgb(100%,100%,100%);fill-opacity:1;" d="M 85.234375 71.226562 L 95.234375 71.226562 L 95.234375 85.226562 L 85.234375 85.226562 Z M 85.234375 71.226562 "/>
<g style="fill:rgb(100%,0%,0%);fill-opacity:1;">
  <use xlink:href="#glyph0-2" x="85.234375" y="82.365234"/>
</g>
</g>
</svg>

<svg xmlns="http://www.w3.org/2000/svg" xmlns:xlink="http://www.w3.org/1999/xlink" width="300pt" height="300pt" viewBox="0 0 300 300"><defs><symbol overflow="visible"><path d="M.594 2.125V-8.47h6V2.126zm.672-.672h4.671V-7.78h-4.67zm0 0"/></symbol><symbol overflow="visible" id="a"><path d="M1.172-8.75h1.594l3.89 7.313V-8.75h1.14V0H6.204L2.328-7.313V0H1.172zm0 0"/></symbol><symbol overflow="visible" id="b"><path d="M4.734-7.953c-.867 0-1.554.324-2.062.97-.5.635-.75 1.51-.75 2.624 0 1.094.25 1.965.75 2.61.508.637 1.195.953 2.062.953.852 0 1.532-.316 2.032-.953.507-.645.765-1.516.765-2.61 0-1.113-.257-1.988-.764-2.624-.5-.645-1.18-.97-2.032-.97zm0-.953c1.22 0 2.192.414 2.922 1.234.74.824 1.11 1.93 1.11 3.313 0 1.376-.37 2.477-1.11 3.298C6.926-.24 5.953.17 4.734.17c-1.23 0-2.214-.41-2.953-1.234C1.04-1.882.673-2.984.673-4.36c0-1.382.367-2.488 1.11-3.312.738-.82 1.722-1.234 2.952-1.234zm0 0"/></symbol></defs><g><path fill="#fff" d="M0 0h300v300H0z"/><path d="M224.11 49.242l-3.587 29.676M220.523 78.918l-27.492 11.73M220.535 86.56l-21.992 9.385M244.43 96.863l-23.907-17.945M193.03 90.648l-3.585 29.676M189.445 120.324l23.907 17.946M196.06 116.496l19.124 14.352M189.445 120.324l-27.492 11.735M213.352 138.27l27.492-11.735M213.352 138.27l-1.793 14.835" stroke-width="1.2" stroke="#000" stroke-miterlimit="10" fill="none"/><path d="M211.56 153.105l-1.794 14.836" stroke-width="1.2" stroke="#00f" stroke-miterlimit="10" fill="none"/><path d="M240.844 126.535l3.586-29.672M234.22 122.727l2.87-23.743M240.844 126.535l23.906 17.945" stroke-width="1.2" stroke="#000" stroke-miterlimit="10" fill="none"/><path d="M209.766 167.94l-13.746 5.87" stroke-width="1.2" stroke="#00f" stroke-miterlimit="10" fill="none"/><path d="M196.02 173.81l-13.747 5.866" stroke-width="1.2" stroke="#000" stroke-miterlimit="10" fill="none"/><path d="M204.254 162.648l-10.996 4.692" stroke-width="1.2" stroke="#00f" stroke-miterlimit="10" fill="none"/><path d="M193.258 167.34l-10.996 4.69" stroke-width="1.2" stroke="#000" stroke-miterlimit="10" fill="none"/><path d="M205.766 160.94h9v14h-9zm0 0" fill="#fff"/><use xlink:href="#a" x="205.766" y="172.08" fill="#00f"/><path d="M182.273 179.676l-23.906-17.946" stroke-width="1.2" stroke="#000" stroke-miterlimit="10" fill="none"/><path d="M178.688 209.352l1.792-14.84" stroke-width="1.2" stroke="#00f" stroke-miterlimit="10" fill="none"/><path d="M180.48 194.512l1.793-14.836M158.367 161.73l-27.492 11.735M158.38 169.375l-21.997 9.383M130.875 173.465L106.97 155.52" stroke-width="1.2" stroke="#000" stroke-miterlimit="10" fill="none"/><path d="M127.29 203.137l1.792-14.836" stroke-width="1.2" stroke="#00f" stroke-miterlimit="10" fill="none"/><path d="M129.082 188.3l1.793-14.835M106.97 155.52l3.585-29.676M100.344 151.707l2.87-23.738M79.477 167.25l27.492-11.73M110.555 125.844l-23.907-17.942M86.648 107.902l-27.492 11.73M86.66 115.543l-21.996 9.387M86.648 107.902l1.793-14.84" stroke-width="1.2" stroke="#000" stroke-miterlimit="10" fill="none"/><path d="M88.44 93.063l1.794-14.836" stroke-width="1.2" stroke="#f00" stroke-miterlimit="10" fill="none"/><path d="M59.156 119.633L55.57 149.31M59.156 119.633l-11.953-8.973" stroke-width="1.2" stroke="#000" stroke-miterlimit="10" fill="none"/><path d="M47.203 110.66l-11.953-8.97" stroke-width="1.2" stroke="#f00" stroke-miterlimit="10" fill="none"/><path d="M55.57 149.31l23.907 17.94M62.184 145.477l19.125 14.355M79.477 167.25l-3.586 29.676M75.89 196.926l23.907 17.945M99.797 214.87l13.746-5.866" stroke-width="1.2" stroke="#000" stroke-miterlimit="10" fill="none"/><path d="M113.543 209.004l13.746-5.867M127.29 203.137l11.952 8.972" stroke-width="1.2" stroke="#00f" stroke-miterlimit="10" fill="none"/><path d="M139.242 212.11l11.953 8.972" stroke-width="1.2" stroke="#000" stroke-miterlimit="10" fill="none"/><path d="M123.29 196.137h9v14h-9zm0 0" fill="#fff"/><use xlink:href="#a" x="123.289" y="207.275" fill="#00f"/><path d="M147.703 220.66l-1.793 14.836" stroke-width="1.2" stroke="#000" stroke-miterlimit="10" fill="none"/><path d="M145.91 235.496l-1.793 14.84" stroke-width="1.2" stroke="#f00" stroke-miterlimit="10" fill="none"/><path d="M154.684 221.504l-1.793 14.836" stroke-width="1.2" stroke="#000" stroke-miterlimit="10" fill="none"/><path d="M152.89 236.34l-1.792 14.84" stroke-width="1.2" stroke="#f00" stroke-miterlimit="10" fill="none"/><path d="M151.195 221.082l13.746-5.867" stroke-width="1.2" stroke="#000" stroke-miterlimit="10" fill="none"/><path d="M164.94 215.215l13.748-5.863" stroke-width="1.2" stroke="#00f" stroke-miterlimit="10" fill="none"/><path d="M142.61 243.758h10v14h-10zm0 0" fill="#fff"/><use xlink:href="#b" x="142.609" y="254.896" fill="#f00"/><path d="M178.688 209.352l11.953 8.968" stroke-width="1.2" stroke="#00f" stroke-miterlimit="10" fill="none"/><path d="M190.64 218.32l11.954 8.973" stroke-width="1.2" stroke="#000" stroke-miterlimit="10" fill="none"/><path d="M174.688 202.352h9v14h-9zm0 0" fill="#fff"/><use xlink:href="#a" x="174.688" y="213.49" fill="#00f"/><path d="M35.25 101.69l1.793-14.838" stroke-width="1.2" stroke="#f00" stroke-miterlimit="10" fill="none"/><path d="M37.043 86.852l1.793-14.836" stroke-width="1.2" stroke="#000" stroke-miterlimit="10" fill="none"/><path d="M30.25 94.69h10v14h-10zm0 0" fill="#fff"/><use xlink:href="#b" x="30.25" y="105.83" fill="#f00"/><path d="M90.234 78.227l13.746-5.868" stroke-width="1.2" stroke="#f00" stroke-miterlimit="10" fill="none"/><path d="M103.98 72.36l13.747-5.864" stroke-width="1.2" stroke="#000" stroke-miterlimit="10" fill="none"/><path d="M85.234 71.227h10v14h-10zm0 0" fill="#fff"/><use xlink:href="#b" x="85.234" y="82.365" fill="#f00"/></g></svg>
